X: 20141
M: C|
L: 1/8
K: A
a |\
eccB ABAE | FAEA FAEa |\
eccB AGAB | cee^d e2e :|\
|: g |\
fddB cdec | dBBG ABcE |\


